src/assets/images/icon-arrow.svg

<svg width="8" height="16" viewBox="0 0 8 16" fill="none" xmlns="http://www.w3.org/2000/svg">
<path fill-rule="evenodd" clip-rule="evenodd" d="M1.64191 1.07169L7.80523 7.75719C8.06492 8.03862 8.06492 8.49329 7.80523 8.77544L1.64191 15.461C1.26702 15.8681 0.657085 15.8681 0.281532 15.461C-0.0933544 15.0538 -0.0933545 14.393 0.281532 13.9858L5.55391 8.26595L0.281531 2.54753C-0.0933556 2.13964 -0.0933556 1.47884 0.281531 1.07169C0.657083 0.664532 1.26702 0.664532 1.64191 1.07169" fill="#3F3F3F"/>
</svg>

<svg width="8" height="16" viewBox="0 0 8 16" 
    xmlns="http://www.w3.org/2000/svg" fill="none">
    <path fill-rule="evenodd" clip-rule="evenodd" d="M1.642 1.072l6.163 6.685c.26.281.26.736 0 1.018l-6.163 6.686c-.375.407-.985.407-1.36 0-.375-.407-.375-1.068 0-1.475l5.272-5.72-5.272-5.718c-.375-.408-.375-1.069 0-1.476.376-.407.985-.407 1.36 0" fill="#3F3F3F"/>
</svg>
